X:214
T: FRISCH AUF SOLDATENBLUT
N: E1354
O: Europa, Mitteleuropa, Deutschland
R: Staende -, Soldaten -, Kriegs - Lied
M: 4/4
L: 1/8
K: Bb
F2 | B2B2F2F2 | D4
F4 | d2d2c2c2 | B4z2
B2 | B2d2f2d2 | d3cc2
c2 | B2B2d2B2 | B3AA4
G4B2G2 | F2FDD2
F2 | d2dBc2cA | B4z2

